dist/img/sprites/header_location.svg

<svg width="20" height="20" viewBox="0 0 20 20" fill="none" xmlns="http://www.w3.org/2000/svg">
<path d="M10.0018 6.28928C9.42236 6.28928 8.86663 6.53029 8.45688 6.95929C8.04714 7.38829 7.81695 7.97014 7.81695 8.57684C7.81695 9.18354 8.04714 9.76539 8.45688 10.1944C8.86663 10.6234 9.42236 10.8644 10.0018 10.8644C10.5813 10.8644 11.137 10.6234 11.5468 10.1944C11.9565 9.76539 12.1867 9.18354 12.1867 8.57684C12.1867 7.97014 11.9565 7.38829 11.5468 6.95929C11.137 6.53029 10.5813 6.28928 10.0018 6.28928ZM8.72731 8.57684C8.72731 8.22293 8.86159 7.88352 9.10061 7.63327C9.33962 7.38302 9.6638 7.24243 10.0018 7.24243C10.3398 7.24243 10.664 7.38302 10.903 7.63327C11.1421 7.88352 11.2763 8.22293 11.2763 8.57684C11.2763 8.93075 11.1421 9.27016 10.903 9.52041C10.664 9.77066 10.3398 9.91125 10.0018 9.91125C9.6638 9.91125 9.33962 9.77066 9.10061 9.52041C8.86159 9.27016 8.72731 8.93075 8.72731 8.57684ZM14.7339 12.5801L11.0604 16.6634C10.9242 16.8148 10.7599 16.9354 10.5775 17.0179C10.3952 17.1003 10.1986 17.1429 10 17.1429C9.80136 17.1429 9.60482 17.1003 9.42247 17.0179C9.24011 16.9354 9.07579 16.8148 8.93961 16.6634L5.26611 12.5801H5.27995L5.27376 12.5724L5.26611 12.5629C4.32323 11.3954 3.80703 9.91517 3.80953 8.38621C3.80953 4.80656 6.58104 1.90479 10 1.90479C13.419 1.90479 16.1905 4.80656 16.1905 8.38621C16.193 9.91517 15.6768 11.3954 14.7339 12.5629L14.7262 12.5724L14.7201 12.5801H14.7339ZM14.0264 11.9628C14.8377 10.965 15.2823 9.69668 15.2801 8.38621C15.2801 5.33308 12.9161 2.85794 10 2.85794C7.08393 2.85794 4.7199 5.33308 4.7199 8.38621C4.71762 9.6967 5.16221 10.965 5.97365 11.9628L6.0858 12.1012L9.60235 16.0095C9.65342 16.0663 9.71504 16.1115 9.78343 16.1424C9.85181 16.1734 9.92551 16.1893 10 16.1893C10.0745 16.1893 10.1482 16.1734 10.2166 16.1424C10.285 16.1115 10.3466 16.0663 10.3976 16.0095L13.9142 12.1012L14.0264 11.9628Z" fill="#004B91"/>
</svg>

<svg width="20" height="20" viewBox="0 0 20 20" fill="none" xmlns="http://www.w3.org/2000/svg"><path d="M10.002 6.29c-.58 0-1.135.24-1.545.67-.41.428-.64 1.01-.64 1.617s.23 1.188.64 1.617c.41.43.965.67 1.545.67s1.135-.24 1.545-.67c.41-.429.64-1.01.64-1.617s-.23-1.189-.64-1.618a2.136 2.136 0 00-1.545-.67zM8.727 8.576c0-.354.135-.693.374-.944.239-.25.563-.39.9-.39.339 0 .663.14.902.39.24.25.373.59.373.944s-.134.693-.373.943-.563.391-.901.391c-.338 0-.662-.14-.901-.39a1.367 1.367 0 01-.374-.944zm6.007 4.003l-3.674 4.083c-.136.152-.3.272-.482.355a1.401 1.401 0 01-1.156 0 1.459 1.459 0 01-.482-.355L5.266 12.58h.014l-.006-.008-.008-.01A6.636 6.636 0 013.81 8.387c0-3.58 2.771-6.481 6.19-6.481 3.419 0 6.19 2.902 6.19 6.481a6.636 6.636 0 01-1.456 4.177l-.008.01-.006.007h.014zm-.708-.617a5.66 5.66 0 001.254-3.577c0-3.053-2.364-5.528-5.28-5.528-2.916 0-5.28 2.475-5.28 5.528a5.658 5.658 0 001.254 3.577l.112.138 3.516 3.908a.546.546 0 00.398.18.524.524 0 00.398-.18l3.516-3.908.112-.138z" fill="#004B91"/></svg>
